packages/ui-icons/svg/Line/table-insert-row-above.svg

<svg viewBox="0 0 1920 1920" xmlns="http://www.w3.org/2000/svg">
    <path d="M1740 120H180c-33 0-60 26.88-60 60v1020h1680V180c0-33.12-27-60-60-60Zm60 1620v-420h-480v480h420c33 0 60-26.88 60-60Zm-600 60v-480H720v480h480Zm-1080-60c0 33.12 27 60 60 60h420v-480H120v420ZM0 180C0 80.76 80.76 0 180 0h1560c99.24 0 180 80.76 180 180v1560c0 99.24-80.76 180-180 180H180c-99.24 0-180-80.76-180-180V180Zm510 596.484v-240h330v-330h240v330h330v240h-330v330H840v-330H510Z" fill-rule="evenodd"/>
</svg>

<svg viewBox="0 0 1920 1920" version="1.1" xmlns="http://www.w3.org/2000/svg">
    <path d="M1740,120 L180,120 C147,120 120,146.88 120,180 L120,1200 L1800,1200 L1800,180 C1800,146.88 1773,120 1740,120 Z M1800,1740 L1800,1320 L1320,1320 L1320,1800 L1740,1800 C1773,1800 1800,1773.12 1800,1740 Z M1200,1800 L1200,1320 L720,1320 L720,1800 L1200,1800 Z M120,1740 C120,1773.12 147,1800 180,1800 L600,1800 L600,1320 L120,1320 L120,1740 Z M-1.02665017e-13,180 C-1.02665017e-13,80.76 80.76,0 180,0 L1740,0 C1839.24,0 1920,80.76 1920,180 L1920,1740 C1920,1839.24 1839.24,1920 1740,1920 L180,1920 C80.76,1920 -1.02665017e-13,1839.24 -1.02665017e-13,1740 L-1.02665017e-13,180 Z M510,776.484 L510,536.484 L840,536.484 L840,206.484 L1080,206.484 L1080,536.484 L1410,536.484 L1410,776.484 L1080,776.484 L1080,1106.484 L840,1106.484 L840,776.484 L510,776.484 Z" stroke="none" stroke-width="1" fill-rule="evenodd"/>
</svg>
